X:84
T:Polonäs efter Andreas Grevelius (nr 84)
S:efter Andreas Grevelius
R:Polska
O:Småland
M:3/4
L:1/16
Z:Nils L
B:http://www.smus.se/earkiv/fmk/browselarge.php?lang=sw&katalogid=M+93&bildnr=00035
K:Dm
e2 |: fefg a2ab g2ga | f2fg e^cef d2c2 | A2^c2c2d2d2e2 | gfed f2e2^c2A2 | 
      fefg a2ab g2ga | f2fg e^cef d2c2 | A2^c2c2d2d2e2 | gfed f4 e4 ::
      ^cAce dcde cAce | d^cde f2fd f2e2 | ^cAce dcde cAce | d^cde f2fd f2e2 | 
      fefg a4 f2d2 | "#?"^cA^ce d4 z4 :|

